X: 1
T:The Glasgow City Police Pipers  " "
M:6/8
L:1/8
Q:80
C:P/M Donald MacLeod, MBE
S:Jig
K:HP
|: A3/2{d}A/2{e}A{g}c/2a3/2c|
{g}B3/2{d}B/2{e}B{g}c3/2a/2{g}a|
A3/2{d}A/2{e}A{g}c/2a3/2c|  !
{g}B3/2a/2{g}afec|
A3/2{d}A/2{e}A{g}c/2a3/2c|
{g}B3/2{d}B/2{e}B{g}c3/2a/2{g}a|  !
{g}a2e{g}fec|
{g}B3/2{d}B/2{e}B{g}c3/2a/2{g}a:| |:
f3/2a/2{g}ae3/2a/2{g}a|  !
c3/2a/2{g}aA3/2a/2{g}a|
f3/2a/2{g}ae3/2a/2{g}a|
c3/2a/2{g}aB3/2a/2{g}a|  !
f3/2a/2{g}ae3/2a/2{g}a|
c3/2a/2{g}aA3/2a/2{g}a|
{g}a2e{g}fec|  !
{g}B3/2{d}B/2{e}B{g}c3/2a/2{g}a:| |:
A3/2{d}A/2{e}A{g}c3/2a/2{g}a|
B3/2{d}B/2{e}B{g}c3/2a/2{g}a|  !
A3/2{d}A/2{e}A{g}c3/2a/2{g}a|
B3/2a/2{g}a{g}c3/2a/2{g}a|
A3/2{d}A/2{e}A{g}c3/2a/2{g}a|  !
B3/2{d}B/2{e}B{g}c3/2a/2{g}a|
{g}a2e{g}fec|
{g}B3/2{d}B/2{e}B{g}c3/2a/2{g}a:| |:  !
f3/2a/2{g}ae3/2a/2{g}a|
c3/2a/2{g}aB3/2a/2{g}a|
f3/2a/2{g}ae3/2a/2{g}a|  !
c3/2a/2{g}ae3/2a/2{g}a|
f3/2a/2{g}ae3/2a/2{g}a|
c3/2a/2{g}aB3/2a/2{g}a|  !
{g}a2e{g}fec|
{g}B3/2{d}B/2{e}B{g}c3/2a/2{g}a:|
